svgs/thin/network-wired.svg

<svg xmlns="http://www.w3.org/2000/svg" viewBox="0 0 640 512"><!--! Font Awesome Pro 6.0.0-alpha3 by @fontawesome - https://fontawesome.com License - https://fontawesome.com/license (Commercial License) --><path d="M608 320h-88V264h112C636.4 264 640 260.4 640 256s-3.594-8-8-8h-304V192H416c17.67 0 32-14.33 32-32V32c0-17.67-14.33-32-32-32H224C206.3 0 192 14.33 192 32v128c0 17.67 14.33 32 32 32h88v56h-304C3.594 248 0 251.6 0 256s3.594 8 8 8h112V320H32c-17.67 0-32 14.33-32 32v128c0 17.67 14.33 32 32 32h192c17.67 0 32-14.33 32-32v-128c0-17.67-14.33-32-32-32H136V264h368V320H416c-17.67 0-32 14.33-32 32v128c0 17.67 14.33 32 32 32h192c17.67 0 32-14.33 32-32v-128C640 334.3 625.7 320 608 320zM208 160V32c0-8.822 7.178-16 16-16h192c8.822 0 16 7.178 16 16v128c0 8.822-7.178 16-16 16H224C215.2 176 208 168.8 208 160zM224 336c8.822 0 16 7.178 16 16v128c0 8.822-7.178 16-16 16H32c-8.822 0-16-7.178-16-16v-128c0-8.822 7.178-16 16-16H224zM624 480c0 8.822-7.178 16-16 16h-192c-8.822 0-16-7.178-16-16v-128c0-8.822 7.178-16 16-16h192c8.822 0 16 7.178 16 16V480z"/></svg>

<svg xmlns="http://www.w3.org/2000/svg" viewBox="0 0 640 512"><!-- Font Awesome Pro 6.0.0-alpha2 by @fontawesome - https://fontawesome.com License - https://fontawesome.com/license (Commercial License) --><path d="M608 320H520V264H632C636.406 264 640 260.422 640 256S636.406 248 632 248H328V192H416C433.674 192 448 177.674 448 160V32C448 14.326 433.674 0 416 0H224C206.326 0 192 14.326 192 32V160C192 177.674 206.326 192 224 192H312V248H8C3.594 248 0 251.578 0 256S3.594 264 8 264H120V320H32C14.326 320 0 334.326 0 352V480C0 497.674 14.326 512 32 512H224C241.674 512 256 497.674 256 480V352C256 334.326 241.674 320 224 320H136V264H504V320H416C398.326 320 384 334.326 384 352V480C384 497.674 398.326 512 416 512H608C625.674 512 640 497.674 640 480V352C640 334.326 625.674 320 608 320ZM208 160V32C208 23.178 215.178 16 224 16H416C424.822 16 432 23.178 432 32V160C432 168.822 424.822 176 416 176H224C215.178 176 208 168.822 208 160ZM224 336C232.822 336 240 343.178 240 352V480C240 488.822 232.822 496 224 496H32C23.178 496 16 488.822 16 480V352C16 343.178 23.178 336 32 336H224ZM624 480C624 488.822 616.822 496 608 496H416C407.178 496 400 488.822 400 480V352C400 343.178 407.178 336 416 336H608C616.822 336 624 343.178 624 352V480Z"/></svg>
